X:1
T:The Lonely Shepherd
T:The Lonely Shepherd
T:Einsamer Hirte
T:James Last
C:James Last
Z:All Rights Reserved
L:1/8
M:4/4
K:F
V:1 treble 
%%MIDI program 40
V:1
"^Slow" z4 z2 z z/ A/4G/4 | A8- | A6 z3/2 A/4G/4 | A8- | A8 | %5
"Dm" d/A/d/e/ g/f/e/f/ d/A/d/e/ g/f/e/f/ | d/A/d/e/ g/f/e/f/ d/A/d/e/ g/f/e/f/ |:"Dm" z DDE EFFA | %8
"Bb" d/c/d- d6 | c/"C"B/c- c4- cG |"F" A8 |"Dm" z DDE EFFA |"Bb" d/c/d- d6 |"C" c/B/c- c4- cG | %14
"F" A6 A2 | G"Dm"F F4 d2 |"Gm" cB B4 G2 |"C" FE E4 c2 |"F" BA A4 A2 |"Dm" GF F4 f2 |"Bb" ed d4 d2 | %21
"C" dc G4 G2 |"A" A/G/A- A6- | A6 z A/G/ |"A7" A8- | A8!dacoda! |]"Dm" z F- F4 F2 | z F- F4 F2 |] %28
"Dm" z DDE EFFA |"Bb" d/c/d- d6 |"C" e/d/e- e4 g2 | c8 |"Dm" z DDE EFFA |"Bb" d/c/d- d6 | %34
"C" e/d/e- e4 g2 |"F" c6 A2 |"Dm" GF F4 d2 |"Gm" cB B4 G2 |"C" FE E4 c2 |"F" BA A4 A2 | %40
"Dm" GF f4"Dm7" e2 |"Bb" ed d4 d2 |"C" dc g4 g2 |"A" a8 :|O"A7" A6 z A/G/ |"Dm" A8 |: %46
"Dm""^Repeat for fade" d/A/d/e/ g/f/e/f/ d/A/d/e/ g/f/e/f/ | d/A/d/e/ g/f/e/f/ d/A/d/e/ g/f/e/f/ :| %48

